X:22
T:Ezt a csárdás kis kalaot édesanyám vette
M:4/4
L:1/4
K:F
A/A/B/A/ G/G/A/G/ | F A F<E | D2 D2 |
d/c/d/e/ d c/c/ | A d e/d/c/B/ | A2 A2 |
d/c/d/e/ d<c | A d e/d/c/B/ | A2 G2 |
A/A/B/A/ G/G/A/G/ | F A F<E | D2 D2 |

